X:1
T:Title
%%score ( 1 2 ) { 3 | 4 }
L:1/8
Q:1/4=90
M:4/4
K:Db
V:1 treble nm="Grand Piano, Soprano"
V:2 treble 
V:3 treble nm="Choir Pad, Clinging to the Cross"
V:4 bass 
V:1
 [DF][EG] [FA]4- [FA][GB] | z2 z A- A3- A/ z/ | [FA][GB] [Fd]4- [Fd][Gc] | %3
w: By~Brantly~G.~Holley * * * *|||
 [Fd][Ad]e-[Ae-] [=Ge-][Ge-] [Ae]2 | [Af][Ge] [Fd]4- [Fd][GB] | z2 z A- A3- A/ z/ | %6
w: |||
 [GB][GB] [FA]4- [FA][DF] | [CE][CE]DC B,B, A,2 | [FA][FA] [FA]4- [FA][FA] | z2 z B- B3- B/ z/ | %10
w: ||||
 [DB][EG] [DF]4- [DF][FA] | z2 e6 | [Af][Ge] [Fd]4- [Fd][GB] | z2 z A- A3- A/ z/ | %14
w: ||||
 [DB][Ec] [FA]4- [FA][Fd] | [Ae][Gc]d-[Ad-] [Gd-][Gd-] [Fd]2- | [Fd]4 z4 |] %17
w: |||
V:2
 x8 | [FA][FA][DF]F EEFF | x8 | z2 .A2 z4 | x8 | [FA][FA][DF]F EEFF | x8 | x8 | x8 | %9
 [GB][FA][GB]G GGGG | x8 | [Ad][Ad]AA =GG A2 | x8 | [FA][FA][DF]F EEFF | x8 | z2 .F2 z4 | x8 |] %17
V:3
 z2 D2 D2 DD | DDA,D CCDD | z2[K:bass] A,2 A,2 A,A, | A,[K:treble]DCC B,B, C2 | %4
 z2[K:bass] A,2 A,2 A,D | D[K:treble]DA,D CCDD | z2 D2 D2 D[K:bass]A, | A,G,F,A, G,G, F,2 | %8
 z2[K:treble] D2 D2 DD | DDDD DDDD | z2[K:bass] A,2 A,2 A,D | D[K:treble]DCC B,B, C2 | %12
 z2[K:bass] A,2 A,2 A,D | D[K:treble]DA,D CCDD | z2 D2 D2 DD | CED[K:bass]C B,B, A,2- | A,4 z4 |] %17
V:4
 z2 D,2 D,2 D,D, | D,D,D,D, A,,A,,D,D, | z2 D,2 D,2 F,E, | D,F,A,A, E,E, A,2 | z2 D,2 D,2 D,D, | %5
 D,D,D,D, A,,A,,D,D, | z2 D,2 F,2 .A,2 | A,,A,, D,6 | z2 D,2 D,2 D,D, | D,D,G,G, G,G,G,G, | %10
 z2 D,2 D,2 D,D, | F,F,A,A, E,E, A,2 | z2 D,2 D,2 D,D, | D,D,D,D, A,,A,,D,D, | z2 D,2 F,2 A,A, | %15
 A,,A,, D,6- | D,4 z4 |] %17

